src/ui/home.svg

<?xml version="1.0" encoding="UTF-8"?><svg xmlns="http://www.w3.org/2000/svg" viewBox="0 0 32 32"><defs><style>.uuid-fbdbbfcb-f93d-494d-9889-df59eae6f4a5{fill:none;}.uuid-fbdbbfcb-f93d-494d-9889-df59eae6f4a5,.uuid-1b58d6f1-991b-4359-9861-db269d8f4ca1{stroke-width:0px;}.uuid-1b58d6f1-991b-4359-9861-db269d8f4ca1{fill:#151515;}</style></defs><g id="uuid-4207767e-534b-4552-b4ad-3d09f60e092a"><rect class="uuid-fbdbbfcb-f93d-494d-9889-df59eae6f4a5" x="0" width="32" height="32"/></g><g id="uuid-415dc194-67eb-405e-9d9d-5a40101a5e07"><path class="uuid-1b58d6f1-991b-4359-9861-db269d8f4ca1" d="M30.707,15.293l-1.9997-1.9997-.0006-.0006L17.0605,1.6465c-.585-.585-1.5361-.585-2.1211,0L3.2933,13.2927l-.0006.0006-1.9997,1.9997c-.3906.3906-.3906,1.0234,0,1.4141s1.0234.3906,1.4141,0l.293-.293v13.0859c0,.8271.6729,1.5,1.5,1.5h23c.8271,0,1.5-.6729,1.5-1.5v-13.0859l.293.293c.1953.1953.4512.293.707.293s.5117-.0977.707-.293c.3906-.3906.3906-1.0234,0-1.4141ZM13,29v-10h6v10h-6ZM27,29h-6v-10.5c0-.8271-.6729-1.5-1.5-1.5h-7c-.8271,0-1.5.6729-1.5,1.5v10.5h-6v-14.5859L16,3.4141l11,11v14.5859Z"/></g></svg>

<svg xmlns="http://www.w3.org/2000/svg" viewBox="0 0 32 32">
  <path d="M0 0h32v32H0z" fill="none"/>
  <path d="m30.707 15.293-2-2L17.06 1.647a1.501 1.501 0 0 0-2.122 0L3.293 13.293l-2 2a1 1 0 1 0 1.414 1.414L3 16.414V29.5c0 .827.673 1.5 1.5 1.5h23c.827 0 1.5-.673 1.5-1.5V16.414l.293.293a.997.997 0 0 0 1.414 0 1 1 0 0 0 0-1.414ZM13 29V19h6v10h-6Zm14 0h-6V18.5c0-.827-.673-1.5-1.5-1.5h-7c-.827 0-1.5.673-1.5 1.5V29H5V14.414l11-11 11 11V29Z" fill="#151515"/>
</svg>
